X:250
T:Maude Miller
R:reel
Z:transcribed by Dave Marshall
M:C|
K:Dmix
|: d2AG FADF | E2cE dEcE | dcAG FADF | A~d3 dgfe | 
d2AG FADF | E2cE dEcE | dcAG FADF |1 Add^c d3^c :|2 Add^c d2de |
|: f2df efge | afge afge | f2df efge | afge fdde |
f2df efge | afge f3g | gffe fde^c | Add^c d4 :|
